!!!!SEGMENT: pl-cz--iii-246--002_gimeshoffer-partita-es-menuetto.krn
!!!id: 17xx:2182
!!!COM: Gimeshoffer
!!!OTL: Partita Es - Menuetto
!!!PDT:
!!!SMS-siglum: PL-CZ
!!!SMS-shelfmark: III-246
!!!NIFC-rismID: 300000341
!!!URL-scan: http://repozytorium.nifc.pl/skany/pl-cz-nut--iii-246
!!!ONB-nifc: UWAGA: częśći Partity: 1. Allegro moderato, 2. Menuetto, 3. Finale
!!!SMS-variant:
!!!SMS-altvar:
**kern	**dynam	**kern	**dynam	**kern	**dynam	**kern	**dynam	**kern
*part5	*part5	*part4	*part4	*part3	*part3	*part2	*part2	*part1
*staff5	*	*staff4	*	*staff3	*	*staff2	*	*staff1
*group2	*group2	*group2	*group2	*group1	*group1	*group1	*group1	*group1
*I"Cornu. Secundo	*	*I"Cornu. Primo.	*	*I"Fagotto	*	*I"Clarinetto. Secundo.	*	*I"Clarinetto. Primo.
*I'cor 2	*	*I'cor 1	*	*I'fag	*	*I'cl 2	*	*I'cl 1
*clefG2	*	*clefG2	*	*clefF4	*	*clefG2	*	*clefG2
*ITrd5c9	*	*ITrd5c9	*	*	*	*ITrd1c2	*	*ITrd1c2
*k[b-e-a-]	*	*k[b-e-a-]	*	*k[b-e-a-]	*	*k[b-e-a-]	*	*k[b-e-a-]
*M3/4	*	*M3/4	*	*M3/4	*	*M3/4	*	*M3/4
*>[A,A,B,B,C,C,D,D,A,A,B,B]	*	*>[A,A,B,B,C,C,D,D,A,A,B,B]	*	*>[A,A,B,B,C,C,D,D,A,A,B,B]	*	*>[A,A,B,B,C,C,D,D,A,A,B,B]	*	*>[A,A,B,B,C,C,D,D,A,A,B,B]
*>A	*	*>A	*	*>A	*	*>A	*	*>A
8r	.	8r	.	8r	.	8r	.	8b-\
=1	=1	=1	=1	=1	=1	=1	=1	=1
*	*	*2\right	*	*	*	*2\right	*	*2\right
*	*	*all\right	*	*	*	*all\right	*	*all\right
!	!	!	!	!	!	!	!	!LO:TX:t=P:problem:pierwsze takty niewidoczne - problem z dokładnym podłożeniem nut
!	!LO:DY:b:rj:t=f&colon;	!	!	!	!LO:DY:b:t=f&colon;	!	!	!
2G/	f	2e-\	.	4E-\	f	2g/	.	2ee-\
.	.	.	.	4G\	.	.	.	.
4B-/	.	4f\	.	4B-\	.	4a-/	.	8.ff\L
.	.	.	.	.	.	.	.	32ee-\LL
.	.	.	.	.	.	.	.	32ff\JJJ
=2	=2	=2	=2	=2	=2	=2	=2	=2
4G/	.	4e-\	.	4E-\	.	4g/	.	2.ryy
4r	.	4r	.	4r	.	4r	.	.
4r	.	4r	.	4r	.	4r	.	.
=3	=3	=3	=3	=3	=3	=3	=3	=3
2B-/	.	2f\	.	4B-\	.	2dd\	.	2ff\
.	.	.	.	4BB-/	.	.	.	.
4e-\	.	4g\	.	4E-\	.	8.ee-\LT	.	8.gg\L
.	.	.	.	.	.	32dd\LL	.	32ff\LL
.	.	.	.	.	.	32ee-\JJJ	.	32gg\JJJ
=4	=4	=4	=4	=4	=4	=4	=4	=4
4B-/	.	4f\	.	4D\	.	4ff\	.	4aa-\
4r	.	4r	.	4r	.	4r	.	4r
4r	.	4r	.	4r	.	8.ee-T\L	.	8.gg\L
.	.	.	.	.	.	32dd\LL	.	32ff\LL
.	.	.	.	.	.	32ee-\JJJ	.	32gg\JJJ
=5	=5	=5	=5	=5	=5	=5	=5	=5:||
!	!	!	!	!	!LO:DY:b:t=p&colon;	!	!	!
2.r	.	2.r	.	4F\	p	4ff\	.	2.r
.	.	.	.	4D\	.	4r	.	.
!LO:TX:a:t=I	!	!LO:TX:a:t=I	!	!	!	!	!	!LO:TX:a:t=I
.	.	.	.	4BB-\	.	8.ddt\L	.	.
.	.	.	.	.	.	32cc\LL	.	.
.	.	.	.	.	.	32dd\JJJ	.	.
!	!	!	!	!	!	!	!	!LO:LB:g=original
=6	=6	=6	=6	=6	=6	=6	=6	=6
4r	.	4r	.	4E-\	.	4ee-\	.	2.ryy
4r	.	4r	.	4G\	.	4r	.	.
4G/	.	4e-\	.	4E-\	.	4g/	.	.
=7	=7	=7	=7	=7	=7	=7	=7	=7
4B-/	.	4f\	.	4D\	.	4a-/	.	4ff\
4r	.	4r	.	4F\	.	4r	.	4r
4B-/	.	4f\	.	4B-\	.	4f/	.	8.dd\Lt
.	.	.	.	.	.	.	.	32cc\LL
.	.	.	.	.	.	.	.	32dd\JJJ
=	=	=	=	=	=	=	=	=
4G/	.	4e-\	.	4E-\	.	4g/	.	4ee-\
4r	.	4r	.	4EE-/	.	4r	.	4r
!LO:LB:g=original	!	!	!	!	!	!	!	!
=8:|!|:	=8:|!|:	=8:|!|:	=8:|!|:	=8:|!|:	=8:|!|:	=8:|!|:	=8:|!|:	=8:|!|:
*>B	*	*>B	*	*>B	*	*>B	*	*>B
4r	.	4r	.	4r	.	4cc\	.	4ee-\
!	!	!	!	!	!	!LO:LB:g=original	!	!
=9	=9	=9	=9	=9	=9	=9	=9	=9
!	!LO:DY:b::rj:t=for	!	!	!	!LO:DY:b:rj:t=f&colon;	!	!	!
8E-/L	f	8e-\L	.	4B-\	f	4.b-\	.	4.dd-X\
16E-/L	.	16e-\L	.	.	.	.	.	.
16E-/JJ	.	16e-\JJ	.	.	.	.	.	.
4.E-/	.	4.e-\	.	4G\	.	.	.	.
.	.	.	.	.	.	8b-\L	.	8dd-\L
.	.	.	.	4E-\	.	8b-\	.	8dd-\
8E-/	.	8e-\	.	.	.	8b-\J	.	8dd-\J
!	!	!LO:LB:g=original	!	!	!	!	!	!
=10	=10	=10	=10	=10	=10	=10	=10	=10
!	!	!	!	!LO:TX:t=P:problem:takt niewidoczny z powodu defektu źródła	!	!	!	!
4E-/	.	4e-\	.	2.ryy	.	4a-\	.	8cc\L
.	.	.	.	.	.	.	.	8ee-\J
4E-/	.	4e-\	.	.	.	4cc\	.	4aa-\
4r	.	4r	.	.	.	4ddn\	.	4ff\
!	!	!	!	!LO:LB:g=original	!	!	!	!
=11	=11	=11	=11	=11	=11	=11	=11	=11
!	!	!	!	!	!LO:DY:b:t=f&colon;	!	!	!
8f\L	.	8f\L	.	4c\	f	4.cc\	.	4.ee-\
16f\L	.	16f\L	.	.	.	.	.	.
16f\JJ	.	16f\JJ	.	.	.	.	.	.
!	!	!	!	!	!LO:DY:b:t=p&colon;	!	!	!
4.f\	.	4.f\	.	4An\	p	.	.	.
.	.	.	.	.	.	8cc\L	.	8ee-\L
!	!	!	!	!	!	!	!LO:DY:b:t=p&colon;	!
.	.	.	.	4F\	.	8cc\	p	8ee-\
8f\	.	8f\	.	.	.	8cc\J	.	8ee-\J
=12	=12	=12	=12	=12	=12	=12	=12	=12
4B-/	.	4f\	.	4B-\	.	4b-\	.	8ddn\L
.	.	.	.	.	.	.	.	8ff\J
4B-/	.	4f\	.	4BB-/	.	4dd\	.	4bb-\
4r	.	4r	.	4r	.	4r	.	4b-\
=13	=13	=13	=13	=13	=13	=13	=13	=13
!	!LO:DY:b::t=for	!	!	!	!	!	!	!
2G/	f	2e-\	.	4E-\	.	2g/	.	2ee-\
!	!	!	!	!	!LO:DY:b:t=f&colon;	!	!	!
.	.	.	.	4G\	f	.	.	.
4B-/	.	4f\	.	4B-\	.	4a-/	.	8.ffT\L
.	.	.	.	.	.	.	.	32ee-\LL
.	.	.	.	.	.	.	.	32ff\JJJ
=14	=14	=14	=14	=14	=14	=14	=14	=14
4G/	.	4e-\	.	4E-\	.	4g/	.	8ee-\L
.	.	.	.	.	.	.	.	8gg\
4r	.	4r	.	4r	.	4r	.	8bb-\
.	.	.	.	.	.	.	.	8gg\
4r	.	4r	.	4r	.	4r	.	8ff\
.	.	.	.	.	.	.	.	8ee-\J
!	!	!	!	!	!	!	!	!LO:LB:g=original
=15	=15	=15	=15	=15	=15	=15	=15	=15
2B-/	.	2f\	.	4B-\	.	2dd\	.	2ff\
.	.	.	.	4BB-/	.	.	.	.
4e-\	.	4g\	.	4E-\	.	8.ee-T\L	.	8.ggt\L
.	.	.	.	.	.	32dd\LL	.	32ff\LL
.	.	.	.	.	.	32ee-\JJJ	.	32gg\JJJ
=16	=16	=16	=16	=16	=16	=16	=16	=16
4B-/	.	4f\	.	4BB-/	.	4ff\	.	4aa-\
4r	.	4r	.	4r	.	4r	.	4r
4r	.	4r	.	4r	.	8.ee-T\L	.	8.gg\L
.	.	.	.	.	.	32dd\LL	.	32ff\LL
.	.	.	.	.	.	32ee-\JJJ	.	32gg\JJJ
=17	=17	=17	=17	=17	=17	=17	=17	=17
2.r	.	2.r	.	4F\	.	4ff\	.	4aa-\
!	!	!	!	!	!LO:DY:b:t=p&colon;	!	!	!
.	.	.	.	4D\	p	4r	.	4r
!LO:TX:a:t=I	!	!LO:TX:a:t=I	!	!	!	!	!	!
.	.	.	.	4BB-\	.	8.ddt\L	.	8.ffT\L
.	.	.	.	.	.	32cc\LL	.	32ee-\LL
.	.	.	.	.	.	32dd\JJJ	.	32ff\JJJ
=18	=18	=18	=18	=18	=18	=18	=18	=18
4r	.	4r	.	4E-\	.	4ee-\	.	4gg\
4r	.	4r	.	4G\	f	4r	.	4r
4G/	.	4e-\	.	4E-\	.	4g/	.	8.ee-T\L
.	.	.	.	.	.	.	.	32dd\LL
.	.	.	.	.	.	.	.	32ee-\JJJ
!LO:LB:g=original	!	!	!	!	!	!LO:LB:g=original	!	!
=19	=19	=19	=19	=19	=19	=19	=19	=19
4B-/	.	4f\	.	4D\	.	4a-/	.	4ff\
4r	.	4r	.	4F\	.	4r	.	4r
4B-/	.	4f\	.	4B-\	.	4f/	.	8.ddt\L
.	.	.	.	.	.	.	.	32cc\LL
.	.	.	.	.	.	.	.	32dd\JJJ
=20	=20	=20	=20	=20	=20	=20	=20	=20
4G/	.	4e-\	.	4E-\	.	4g/	.	4ee-\
4r	.	4r	.	4EE-/	.	4r	.	4r
4ryy	.	4r	.	4ryy	.	4ryy	.	4ryy
!	!	!LO:LB:g=original	!	!	!	!	!	!
=21:|!|:	=21:|!|:	=21:|!|:	=21:|!|:	=21:|!|:	=21:|!|:	=21:|!|:	=21:|!|:	=21:|!|:
*>C	*	*>C	*	*>C	*	*>C	*	*>C
*M3/4	*	*	*	*	*	*	*	*
!LO:TX:a:t=P:problem:w źródle "Trio" zapisane na pięciolinii, przed taktem 21	!	!LO:TX:a:t=P:problem:w źródle "Trio" zapisane na pięciolinii, przed taktem 21	!	!	!	!	!	!
!LO:TX:a:i:t=Trio	!	!LO:TX:a:i:t=Trio	!	!LO:TX:a:i:t=Trio	!	!	!	!
8.G/L	.	8.e-\L	.	4r	.	4r	.	4r
16G/Jk	.	16e-\Jk	.	.	.	.	.	.
=22	=22	=22	=22	=22	=22	=22	=22	=22-
4G/	.	4e-\	.	4E-\	.	8r	.	8r
.	.	.	.	.	.	8gg\	.	8bb-\
4r	.	4r	.	4r	.	4ee-\	.	4gg\
8.B-/L	.	8.f\L	.	4r	.	4r	.	4r
16B-/Jk	.	16f\Jk	.	.	.	.	.	.
!	!	!	!	!LO:LB:g=original	!	!	!	!
=23	=23	=23	=23	=23	=23	=23	=23	=23
4B-/	.	4f\	.	4D\	.	8r	.	8r
.	.	.	.	.	.	8ff\	.	8aa-\
4r	.	4r	.	4r	.	4dd\	.	4ff\
8.B-/L	.	8.f\L	.	4r	.	4r	.	4r
16B-/Jk	.	16f\Jk	.	.	.	.	.	.
!	!	!	!	!	!	!	!	!LO:LB:g=original
=24	=24	=24	=24	=24	=24	=24	=24	=24
4e-\	.	4g\	.	4E-\	.	4r	.	4r
4f\	.	4a-\	.	4AA-/	.	4r	.	4r
4B-/	.	4f\	.	4BB-/	.	16f\LL	.	16b-\LL
.	.	.	.	.	.	16b-\	.	16dd\
.	.	.	.	.	.	16dd\	.	16ff\
.	.	.	.	.	.	16ff\JJ	.	16aa-\JJ
=25	=25	=25	=25	=25	=25	=25	=25	=25
8G/L	.	8e-\L	.	8E-\L	.	8gg\L	.	8bb-\L
8G/	.	8e-\	.	8E-\	.	8gg\	.	8bb-\J
8B-/	.	8f\	.	8BB-\	.	8ff\	.	8aa-\L
8B-/J	.	8f\J	.	8BB-\J	.	8ff\J	.	8aa-\J
4e-\	.	4g\	.	4EE-/	.	4ee-\	.	4gg\
!LO:LB:g=original	!	!	!	!	!	!	!	!
=26	=26	=26	=26	=26	=26	=26	=26	=26
!	!	!	!LO:DY:b:t=f&colon;	!	!LO:DY:b:t=f&colon;	!	!	!
4e-\	.	4e-\	f	4E-\	f	16e-\LL	.	16g\LL
.	.	.	.	.	.	16g\	.	16b-\
.	.	.	.	.	.	16b-\	.	16ee-\
.	.	.	.	.	.	16ee-\JJ	.	16gg\JJ
8r	.	8r	.	4E-\	.	4.gg\	.	4.bb-\
8e-\	.	8g\	.	.	.	.	.	.
4e-\	.	4g\	.	4E-\	.	.	.	.
.	.	.	.	.	.	8ee-\	.	8gg\
=27	=27	=27	=27	=27	=27	=27	=27	=27
4B-/	.	4f\	.	4D\	.	16d/LL	.	16f\LL
.	.	.	.	.	.	16f/	.	16b-\
.	.	.	.	.	.	16b-/	.	16dd\
.	.	.	.	.	.	16dd/JJ	.	16ff\JJ
8r	.	8r	.	4D\	.	4.ff\	.	4.aa-\
8B-/	.	8f\	.	.	.	.	.	.
4B-/	.	4f\	.	4D\	.	.	.	.
.	.	.	.	.	.	8dd\	.	8ff\
!	!	!	!	!	!	!LO:LB:g=original	!	!
=28	=28	=28	=28	=28-	=28	=28	=28	=28
4r	.	4r	.	4E-\	.	8ee-\L	.	8gg\L
.	.	.	.	.	.	8cc\	.	8ee-\
4B-/	.	4f\	.	4F\	.	8b-\	.	8dd\
.	.	.	.	.	.	8dd\J	.	8ff\J
4f\	.	4f\	.	4FF/	.	8.a\L	.	8.cc\L
.	.	.	.	.	.	16cc\Jk	.	16ee-\Jk
=29	=29	=29	=29	=29	=29	=29	=29	=29
4f\	.	4f\	.	4BB-/	.	4cc\	.	4ee-\
4r	.	4f\	.	4BB-/	.	8b-\	.	8dd\
.	.	.	.	.	.	8r	.	8r
4ryy	.	4r	.	4ryy	.	4ryy	.	4ryy
!	!	!LO:LB:g=original	!	!	!	!	!	!
=30:|!|:	=30:|!|:	=30:|!|:	=30:|!|:	=30:|!|:	=30:|!|:	=30:|!|:	=30:|!|:	=30:|!|:
*>D	*	*>D	*	*>D	*	*>D	*	*>D
4r	.	4r	.	4r	.	8.dd\L	.	8.ff\L
.	.	.	.	.	.	16dd\Jk	.	16ff\Jk
=31	=31	=31	=31	=31	=31	=31	=31	=31
8r	.	8r	.	4E-\	.	4ff\	.	4aa-\
8B-/	.	8f\	.	.	.	.	.	.
4B-/	.	4f\	.	4r	.	4r	.	4r
4r	.	4r	.	4r	.	8.ee-\L	.	8.gg\L
.	.	.	.	.	.	16ee-\Jk	.	16gg\Jk
=32	=32	=32	=32	=32	=32	=32	=32	=32
8r	.	8r	.	4D\	.	4gg\	.	4bb-\
8G/	.	8e-\	.	.	.	.	.	.
4G/	.	4e-\	.	4r	.	4r	.	4r
!	!	!	!	!	!	!	!	!LO:TX:t=P:problem:ostatnia miara w takcie niewidoczna
4r	.	4r	.	4r	.	8.ee-\L	.	4ryy
.	.	.	.	.	.	16ee-\Jk	.	.
!	!	!	!	!	!	!	!	!LO:LB:g=original
=33	=33	=33	=33	=33	=33	=33	=33	=33
8r	.	8r	.	4E-\	.	8gg\	.	8bb-\
8G/	.	8e-\	.	.	.	8r	.	8r
8r	.	8r	.	4D\	.	8ff\	.	8aa-\
8B-/	.	8f\	.	.	.	8r	.	8r
8r	.	8r	.	4E-\	.	8ee-\	.	8gg\
8e-\	.	8g\	.	.	.	8r	.	8r
!	!	!	!	!LO:LB:g=original	!	!	!	!
=34	=34	=34	=34	=34	=34	=34	=34	=34
4B-/	.	4f\	.	4B-\	.	8.dd\L	.	8.ff\L
.	.	.	.	.	.	16dd\Jk	.	16ff\Jk
4r	.	4r	.	4BB-/	.	4dd\	.	4ff\
!	!LO:DY:b:t=p&colon;	!	!	!	!	!	!	!
8.G/L	p	8.e-\L	.	4r	.	4r	.	4r
16G/Jk	.	16e-\Jk	.	.	.	.	.	.
!LO:LB:g=original	!	!	!	!	!	!	!	!
=35	=35	=35	=35	=35	=35	=35	=35	=35
4G/	.	4e-\	.	4E-\	.	8r	.	8r
.	.	.	.	.	.	8gg\	.	8bb-\
4r	.	4r	.	4r	.	4ee-\	.	4gg\
!	!	!LO:N:vis=8	!	!	!	!	!	!
8.B-/L	.	8.f\L	.	4r	.	4r	.	4r
16B-/Jk	.	16f\Jk	.	.	.	.	.	.
!	!	!	!	!	!	!LO:LB:g=original	!	!
=36	=36	=36	=36	=36	=36	=36	=36	=36
4B-/	.	4g\	.	4E-\	.	8r	.	8r
.	.	.	.	.	.	8ff\	.	8aa-\
4r	.	4r	.	4r	.	4dd\	.	4ff\
8.B-/L	.	8.f\L	.	4r	.	4r	.	4r
16B-/Jk	.	16f\Jk	.	.	.	.	.	.
=37	=37	=37	=37	=37	=37	=37	=37	=37
4e-\	.	4g\	.	4E-\	.	4r	.	4r
4f\	.	4a-\	.	4AA-/	.	4r	.	4r
4B-/	.	4f\	.	4BB-/	.	16f\LL	.	16b-\LL
.	.	.	.	.	.	16b-\	.	16dd\
.	.	.	.	.	.	16dd\	.	16ff\
.	.	.	.	.	.	16ff\JJ	.	16aa-\JJ
=38	=38	=38	=38	=38	=38	=38	=38	=38
8G/L	.	8e-\L	.	8E-/L	.	8gg\L	.	8bb-\L
8G/	.	8e-\	.	8E-/	.	8gg\	.	8bb-\J
8B-/	.	8f\	.	8BB-/	.	8ff\	.	8aa-\L
8B-/J	.	8f\J	.	8BB-/J	.	8ff\J	.	8aa-\J
4e-\	.	4g\	.	4EE-/	.	4ee-\	.	4gg\
=39	=39	=39	=39	=39	=39	=39	=39	=39
4G/	.	4e-\	.	4E-\	.	16e-\LL	.	16g\LL
.	.	.	.	.	.	16g\	.	16b-\
.	.	.	.	.	.	16b-\	.	16ee-\
.	.	.	.	.	.	16ee-\JJ	.	16gg\JJ
8r	.	8r	.	4E-\	.	4.gg\	.	4.bb-\
8G/	.	8e-\	.	.	.	.	.	.
4G/	.	4e-\	.	4E-\	.	.	.	.
.	.	.	.	.	.	8ee-\	.	8gg\
!	!	!LO:LB:g=original	!	!	!	!	!	!
=40	=40	=40	=40	=40	=40	=40	=40	=40
4B-/	.	4f\	.	4D\	.	16d\LL	.	16f\LL
.	.	.	.	.	.	16f\	.	16b-\
.	.	.	.	.	.	16b-\	.	16dd\
.	.	.	.	.	.	16dd\JJ	.	16ff\JJ
8r	.	8r	.	4D\	.	4.ff\	.	4.aa-\
8B-/	.	8f\	.	.	.	.	.	.
!	!	!	!	!LO:TX:a:t=b	!	!	!	!
4B-/	.	4f\	.	4D\ 4BB-\	.	.	.	.
!	!	!	!	!	!	!	!	!LO:TX:t=P:problem:ostatnia miara niewidoczna
.	.	.	.	.	.	8dd\	.	8ff\yy
!	!	!	!	!	!	!	!	!LO:LB:g=original
=41	=41	=41	=41	=41	=41	=41	=41	=41
4r	.	4r	.	4E-\	.	8ee-\L	.	8gg\L
.	.	.	.	.	.	8gg\	.	8bb-\
4r	.	4r	.	4AA-/	.	8aa-\	.	8ccc\
.	.	.	.	.	.	8ff\J	.	8aa-\J
4B-/	.	4f\	.	4BB-/	.	8.dd\L	.	8.ff\L
.	.	.	.	.	.	16ff\Jk	.	16aa-\Jk
=42	=42	=42	=42	=42	=42	=42	=42	=42
4B-/	.	4f\	.	4E-\	.	4ff\	.	4aa-\
8e-/	.	8e-\	.	4EE-/	.	8ee-\	.	8gg\
!LO:TX:a:t=P:problem:w źródle ta adnotacja zapisana na pięciolinii, za ostatnim taktem	!	!	!	!	!	!	!	!LO:TX:a:t=P:problem:w źródle ta adnotacja zapisana na pięciolinii, za ostatnim taktem
!LO:TX:b:i:t=Menu\ndaca\npo	!	!LO:TX:a:i:t=Menuett Dacapo	!	!	!	!LO:TX:a:i:t=Menuett\n Da Capo	!	!LO:TX:a:i:t=Menuetto Da\n Capo
!	!	!LO:TX:a:t=P:problem:w źródle ta adnotacja zapisana na pięciolinii, za ostatnim taktem	!	!	!	!LO:TX:a:t=P:problem:w źródle ta adnotacja zapisana na pięciolinii, za ostatnim taktem	!	!
8r	.	8r	.	.	.	8r	.	8r
=:|!	=:|!	=:|!	=:|!	=:|!	=:|!	=:|!	=:|!	=:|!
*-	*-	*-	*-	*-	*-	*-	*-	*-
!!!system-decoration: [(g1)][(g2)]
!!!ENC: Tomasz Grochalski
!!!END: 2021-06-17
!!!EED: Antoni Szymański
!!!EST: 2021-07-19
